storage/app/icons/phosphoricons/thin/film-script-thin.svg

<svg xmlns="http://www.w3.org/2000/svg" fill="currentColor" viewBox="0 0 256 256"><path d="M200 28H56a12 12 0 0 0-12 12v176a12 12 0 0 0 12 12h144a12 12 0 0 0 12-12V40a12 12 0 0 0-12-12m4 188a4 4 0 0 1-4 4H56a4 4 0 0 1-4-4V40a4 4 0 0 1 4-4h144a4 4 0 0 1 4 4ZM92 80a8 8 0 1 1-8-8 8 8 0 0 1 8 8m0 96a8 8 0 1 1-8-8 8 8 0 0 1 8 8m0-48a8 8 0 1 1-8-8 8 8 0 0 1 8 8"/></svg>

<svg xmlns="http://www.w3.org/2000/svg" viewBox="0 0 256 256" fill="currentColor"><path d="M200,28H56A12,12,0,0,0,44,40V216a12,12,0,0,0,12,12H200a12,12,0,0,0,12-12V40A12,12,0,0,0,200,28Zm4,188a4,4,0,0,1-4,4H56a4,4,0,0,1-4-4V40a4,4,0,0,1,4-4H200a4,4,0,0,1,4,4ZM92,80a8,8,0,1,1-8-8A8,8,0,0,1,92,80Zm0,96a8,8,0,1,1-8-8A8,8,0,0,1,92,176Zm0-48a8,8,0,1,1-8-8A8,8,0,0,1,92,128Z"/></svg>
